!!!COM: Victor Masse/
!!!CNT: Francais
!!!TXO: Francais
!!!OTL: Berceuse
!!!LYR: Marquis de Pastoret
!!!OPR: Premie\res Me/lodies
!!!ONM: No. 8
!!!ENC: Jacob Pegg
!!!YOR: Romantic French Song 1830-1870 -David Tunley, ed.,
!!!YOR: New York: Garland Publishing, Inc., 1995, Vol. 4
!!!ODT: 1868/
!!NB: Vocal melody and text only encoded.
!!NB: First instance of melodic material only encoded.
**kern	**silbe
*clef G2	*
*k[f#]	*
*M6/8	*
=17	=17
{4.b	{Pe-
4dd	-tit
8g	en-
=18	=18
[4.a	-fant,
8a]	|
(8a	en
8b)	|
=19	=19
4cc	toi
8dd	je
(8ff#	le
8ee)	|
8dd	re-
=20	=20
(4.cc#	-trou-
8dd)}	-ve,}
8r	.
8r	.
=21	=21
{4.dd	{En-
4ee	-fant
8b	si
=22	=22
(4.dd	cher,
4cc)	|
8a	en
=23	=23
4g	toi
8b	sont
(8ee	re/-
8dd)	|
8b	-u-
=24	=24
[4.a	-nis
8a]}	|}
8r	.
8r	.
=25	=25
{4.b	{L'a-
4dd	-mour
8g	qu'il
=26	=26
[4.a	a,
8a]	|
8a	le
8b	bon-
=27	=27
(4cc	-heur
8dd)	|
(8ff#	que
8ee)	|
8dd	j'e/-
=28	=28
(4.cc#	-prou-
8dd)}	-ve,}
8r	.
8r	.
=29	=29
{4.dd	{Et
4ee	tout
8b	l'es-
=30	=30
(4.dd	-poir
4cc)	|
8a	que
=31	=31
(8g	Dieu
8cc)	|
8b	nous
(8a	a
8ee)	|
8dd	per-
=32	=32
[4.g	-mis.
8g]}	|}
8r	.
8r	.
=33	=33
{4.a	{Dors,
4dd	mon
8ee	en-
=34	=34
(4.dd	-fant,
8cc#)}	|}
8r	.
8r	.
=35	=35
{4.a	{pre\s
4e	de
8ff#	ta
=36	=36
(4.ee	me\-
8dd)}	-re,}
8r	.
8r	.
=37	=37
{4.dd	{Et
4cc#	quand
8dd	ton
=38	=38
(4.ffn	pe\-
8ee-)}	-re}
8r	.
8r	.
=39	=39
{4.cc	{re-
4b	|
8cc	-vien-
=40	=40
(4.ee-	-dra,
8dd)}	|}
8r	.
{8dd	{Tous
=41	=41
4.dd	deux,
4.cc	j'es-
=42	=42
(4.cc	-pe\-
8b-)}	-re}
8r	.
{8b-	{Ce
=43	=43
8a	soir
8a	il
8a	nous
8a	em-
8gg	-bras-
8cc#	-se-
=44	=44
(4.dd	-ra.
4.cc#	|
=45	=45
2.ccn)}	|}
=46	=46
{[4.b	{Dors!
8b]	|
8r	.
8r	.
=47	=47
[4.dd	dors!
8dd]	|
8r	.
8r	.
=48	=48
4.ee	pre\s
4dd#	de
8ee	ta
=49	=49
(4.gg	me\-
4dd)}	-re}
8r	.
=50	=50
{(4.a	{Dors!
4.dd)	|
=51	=51
(4.b	Dors!
4.dd)	|
=52	=52
4.a	mon
4.a	en-
=53	=53
[4.a	-fant
8a]}	|}
8r	.
8r	.
=54	=54
{[4.b	{Dors!
8b]	|
8r	.
8r	.
=55	=55
[4.dd	dors!
8dd]}	|}
8r	.
8r	.
=56	=56
{4.ee	{pre\s
4dd#	de
8ee	ta
=57	=57
(4.gg	me\-
4dd)}	-re}
8r	.
=58	=58
{(4.a	{Dors!
4.dd)	|
=59	=59
(4.b	dors!
4.dd)	|
=60	=60
(4.a	mon
8ee)	|
4dd;	en-
=61	=61
[4.g	-fant!
8g]}	|}
8r	.
8r	.
!!written out strophes follow. Variations in 3 of 51 measures. 
*-	*-
